X: 15460
T: Glenbeg Lake
R: jig
M: 6/8
K: Edorian
|:B,EE B,EE|GFG AGA|BGE BGE|AFD FED|
B,EE B,EE|GFG AGA|BGE AFD|1 E3 E2D:|2 E3 E2F||
|:G3 BGB|ded dBA|GBB efg|faa afd|
g3 gfe|Beg fed|B3 AFD|1 E3 E2F:|2 E3 E2D||

